src/svgs/ionic.svg

<?xml version="1.0" encoding="UTF-8" standalone="no"?>
<svg
   viewBox="0 0 32 32"
   version="1.1"
   id="svg1028"
   xmlns="http://www.w3.org/2000/svg"
   xmlns:svg="http://www.w3.org/2000/svg">
  <defs
     id="defs1032" />
  <path
     id="path1024"
     d="M 16 6 C 10.5 6 6 10.5 6 16 C 6 21.5 10.5 26 16 26 C 21.5 26 26 21.5 26 16 C 26 14.4 25.600391 12.899609 24.900391 11.599609 C 25.300391 11.199609 25.5 10.600391 25.5 9.9003906 C 25.5 8.5003906 24.400391 7.3007813 22.900391 7.3007812 C 22.400391 7.3007812 21.9 7.4992188 21.5 7.6992188 C 20 6.5992187 18.1 6 16 6 z M 16 7.5996094 C 17.7 7.5996094 19.299609 8.1 20.599609 9 C 20.499609 9.3 20.400391 9.6003906 20.400391 9.9003906 C 20.400391 11.300391 21.5 12.5 23 12.5 C 23.2 12.5 23.399609 12.500391 23.599609 12.400391 C 24.099609 13.500391 24.400391 14.7 24.400391 16 C 24.400391 20.7 20.7 24.400391 16 24.400391 C 11.3 24.400391 7.5996094 20.6 7.5996094 16 C 7.5996094 11.4 11.4 7.5996094 16 7.5996094 z M 16 11.900391 C 13.7 11.900391 11.900781 13.7 11.800781 16 C 11.800781 18.3 13.600391 20.099219 15.900391 20.199219 C 18.200391 20.199219 19.999609 18.399609 20.099609 16.099609 C 20.099609 13.799609 18.3 11.900391 16 11.900391 z " />
</svg>

<svg xmlns="http://www.w3.org/2000/svg" viewBox="0 0 32 32"><path d="M24.9 11.6c.4-.4.6-1 .6-1.7 0-1.4-1.1-2.6-2.6-2.6-.5 0-1 .2-1.4.4C20 6.6 18.1 6 16 6 10.5 6 6 10.5 6 16s4.5 10 10 10 10-4.5 10-10c0-1.6-.4-3.1-1.1-4.4zM16 24.4c-4.7 0-8.4-3.8-8.4-8.4s3.8-8.4 8.4-8.4c1.7 0 3.3.5 4.6 1.4-.1.3-.2.6-.2.9 0 1.4 1.1 2.6 2.6 2.6.2 0 .4 0 .6-.1.5 1.1.8 2.3.8 3.6 0 4.7-3.7 8.4-8.4 8.4z"/><path d="M16 11.9c-2.3 0-4.1 1.8-4.2 4.1 0 2.3 1.8 4.1 4.1 4.2 2.3 0 4.1-1.8 4.2-4.1 0-2.3-1.8-4.2-4.1-4.2z"/></svg>
